X: 42803
T: Whitney's Fancy
R: hornpipe
M: 4/4
K: Gmajor
|:(3def|g>fg>a g>fe>d|e>dB>G A>GE>F|G>DG>A B>A (3Bcd|e>d^c<e d2 e>f|
g2 g>a g2 (3fed|e>dB>e d>BA>F|G>DG>E D2 (3cBA|B2 G2 G2:|
|:(3DEF|G>AB>A G2 (3GAB|A>Bc>B A2 (3ABc|d>ef>e d>c (3cBA|G>A (3Bc^c d2 (3DF/G/A|
G2 B>A G>DB>G|A2 c>B A>Bc>^c|(3d^cd f>e (3ded (3=cAF|(3GB/c/d g2 G2:|

